X: 238
T:Down Yonder
R:reel
Z:Transcribed to abc by j coon
M:C|
L:1/8
Q:1/4=180
K:G
d^cc|"G"B2B2 AG-GA|BdBG- Ggf=f|"C"e2e2 dc-cd|egec- c4|
"G"BGAG BGAG|Bd-dB d4|BGAG BGAG|Bd-dBd4|
"A7"^cc-cc BA-AB|^ce c B- B A- A2|"D"dedc- cBA2|"D7"DEDC- CB,A,2|
"G"B2B2  A G-G A|BdBG- Ggf=f|"C"e2e2 d c-c d|egec- c4|
"G"BGAG BGAG|Bd-dB d4|"C"efga- "D7"afd2|"G"g4- g|]
